X: 1773
T: Sevmek Seni Bir Suç ise
C: Nev´eser Kökdeş
O: Turkey
F: http://compmusic.upf.edu/node/140
N: rast--sarki--semai--sevmek_seni--neveser_kokdes
N: makam= rast
N: form= sarki
N: usul= semai = 3/4
M: 3/4
L: 1/16
K: C _1/4B ^f  
Q: 1/4=120
%%MIDI tuningsystem comma53
z2GF G2D2 E2F2  | G6A2 B2G2  | z2A2 B2A2 G2F2  | \
w:   |   |   | 
G8 z4  | z2d^c d2B2 =c2d2  | 
w:   |   | 
e6g2 f2e2  | d6B2 c2A2  | B8 z4  | g6f2 g2e2  | \
w:   |   |   |   | 
d6=f2 e2f2  | c2B2 e2d2 c2B2  | 
w:   |   | 
A8 z4  | z2D2 E2F2 G2A2  | B6A2 G4  | A4 _B2A2 G2F2  | \
w:   |   |   |   | 
G8 z4  | D8 G4  | G12  | 
w:   |  Sev  |  mek   | 
A4 B4 c4  | d8 c4  | B4 A4 G4  | F4 G4 A4  | G12  | \
w:  se  |  ni   |  bir   |  suç  *  i  |  se    | 
G8 z4  | d12  | d12  | ^c4 d4 e4  | d8 g4  | 
w:   |  Af  |  fet   |  gü  |  na hı  | 
f8 d4  | e8 c4  | d12  | d8 z4  | D8 G4  | G12  | \
w:  mı  ey   |  sev gi  |  li    |   |  Sev  |  mek   | 
A4 B4 c4  | d8 c4  | B4 A4 G4  | F4 G4 A4  | 
w:  se  |  ni   |  bir   |  suç  *  i  | 
G12  | G8 z4  | d12  | d12  | ^c4 d4 e4  | d8 g4  | \
w:  se    |   |  Af  |  fet   |  gü  |  na hı  | 
f8 d4  | e8 c4  | d12  | d8 z4  | d4 e4 f4  | \
w:  mı  ey   |  sev gi  |  li    |   |  Diz  *  çö  | 
g8 b4  | 
w:  küp  yal  | 
a8 g2=f2  | e8 z4  | d4 e4 =f4  | e4 d4 ^c4  | \
w:  va ra  |  yım    |  Bı rak  di  |  zin de  ağ  | 
d8 c2B2  | B8 z4  | c3B c4 A4  | B2{c}BA B4 G4  | 
w:  la ya yım    |   |  Za *  lim sin   |  ca *  *  zip *  sin   | 
A2G2 A2B2 c2e2  | d12  | B4 A4 G4  | F4 E4 D4  | G12  | \
w:  çok  *  ha *  şin  |  sin    |  Sev gi lim   |  son  e şim  |  sin    | 
G8 z4  | d4 e4 f4  | g8 b4  | 
w:   |  Diz  *  çö  |  küp  yal  | 
a8 g2=f2  | e8 z4  | d4 e4 =f4  | e4 d4 ^c4  | \
w:  va ra  |  yım    |  Bı rak  di  |  zin de  ağ  | 
d8 c2B2  | B8 z4  | c3B c4 A4  | B2{c}BA B4 G4  | 
w:  la ya yım    |   |  Za *  lim sin   |  ca *  *  zip *  sin   | 
A2G2 A2B2 c2e2  | d12  | B4 A4 G4  | F4 E4 D4  | G12  | \
w:  çok  *  ha *  şin  |  sin    |  Sev gi lim   |  son  e şim  |  sin    | 
G8 z4  | b12  | b12  | ^a4 b4 {b}c'4  | 
w:   |  Se  |  ni   |  gör me *  di  | 
b8 z4  | c'8 b2a2  | a8 g2f2  | f8 e2d2  | \
w:  ğim   |  gün ler    |  Her  şey   |  gam  ke  | 
d8 z4  | e3d e4 f4  | g8 a4  | b4 c'4 e'4  | 
w:  der    |  İn *  *  sa  |  fa  gel  |  sin  *  kal  | 
d'8 z4  | b4 a4 g4  | a4 _7/8b2a2 g2f2  | g12  | \
w:  bim    |  Hüz *  nüm   |  dün den  *  be  |  ter    | 
g8 z4  | b12  | b12  | ^a4 b4 {b}c'4  | b8 z4  | \
w:   |  Se  |  ni   |  gör me *  di  |  ğim   | 
c'8 b2a2  | 
w:  gün ler    | 
a8 g2f2  | f8 e2d2  | d8 z4  | e3d e4 f4  | \
w:  Her  şey   |  gam  ke  |  der    |  İn *  *  sa  | 
g8 a4  | b4 c'4 e'4  | d'8 z4  | b4 a4 g4  | 
w:  fa  gel  |  sin  *  kal  |  bim    |  Hüz *  nüm   | 
a4 _7/8b2a2 g2f2  | g12  | g8 z4  | d4 e4 f4  | \
w:  dün den  *  be  |  ter    |   |  Diz  *  çö  | 
g8 b4  | a8 g2=f2  | e8 z4  | d4 e4 =f4  | 
w:  küp  yal  |  va ra  |  yım    |  Bı rak  di  | 
e4 d4 ^c4  | d8 c2B2  | B8 z4  | c3B c4 A4  | \
w:  zin de  ağ  |  la ya yım    |   |  Za *  lim sin   | 
B2{c}BA B4 G4  | A2G2 A2B2 c2e2  | 
w:  ca *  *  zip *  sin   |  çok  *  ha *  şin  | 
d12  | B4 A4 G4  | F4 E4 D4  | G12  | G8 z4  | \
w:  sin    |  Sev gi lim   |  son  e şim  |  sin    |   | 
d4 e4 f4  | g8 b4  | a8 g2=f2  | e8 z4  | d4 e4 =f4  | 
w:  Diz  *  çö  |  küp  yal  |  va ra  |  yım    |  Bı rak  di  | 
e4 d4 ^c4  | d8 c2B2  | B8 z4  | c3B c4 A4  | \
w:  zin de  ağ  |  la ya yım    |   |  Za *  lim sin   | 
B2{c}BA B4 G4  | A2G2 A2B2 c2e2  | 
w:  ca *  *  zip *  sin   |  çok  *  ha *  şin  | 
d12  | B4 A4 G4  | F4 E4 D4  | G12  | G8 z4  | |


